; HEADER_BLOCK_START
; generated by Creality_Print V on 2025-04-28 at 20:10:25
; total layer number: 207
; filament_density: 1.24
; filament_diameter: 1.75
; max_z_height: 41.40
; HEADER_BLOCK_END

; THUMBNAIL_BLOCK_START

;
; THUMBNAIL_BLOCK_END

; THUMBNAIL_BLOCK_START

;
; THUMBNAIL_BLOCK_END

; THUMBNAIL_BLOCK_START

;
; THUMBNAIL_BLOCK_END

; THUMBNAIL_BLOCK_START

;
; THUMBNAIL_BLOCK_END

; external perimeters extrusion width = 0.42mm
; perimeters extrusion width = 0.45mm
; infill extrusion width = 0.45mm
; solid infill extrusion width = 0.42mm
; top infill extrusion width = 0.42mm
; first layer extrusion width = 0.50mm

; EXECUTABLE_BLOCK_START
EXCLUDE_OBJECT_DEFINE NAME=0_id_0_copy_0 CENTER=122.484,108.478 POLYGON=[[52.4841,61.2204],[52.5121,61.1344],[52.5925,61.0522],[52.7252,60.9718],[52.9065,60.8989],[53.1308,60.8335],[53.3944,60.7774],[53.6897,60.7325],[54.0112,60.6989],[54.3477,60.6802],[54.6935,60.6727],[72.8916,60.6727],[167.344,60.7662],[190.275,60.8596],[190.621,60.8671],[190.957,60.8858],[191.278,60.9195],[191.574,60.9643],[191.837,61.0204],[192.062,61.0858],[192.243,61.1587],[192.376,61.2391],[192.456,61.3213],[192.484,61.4073],[192.484,65.9196],[172.677,152.408],[171.88,153.971],[170.639,155.212],[169.077,156.008],[167.344,156.283],[77.4374,156.283],[75.7047,156.008],[74.142,155.212],[72.9009,153.971],[72.1047,152.408],[52.4841,65.7327],[52.4841,61.2204]]
M73 P0 R105
M106 S0
M106 P2 S0
;TYPE:Custom
M106 P2 S255 
M191 S35 ;set chamber_temperature and wait for it to be reached
M106 P2 S0 
START_PRINT EXTRUDER_TEMP=250 BED_TEMP=70
T0
M204 S2000
M104 S250
G1 Z3 F600
M83
G92 E0
G1 Z1 F600
G90
G21
M83 ; use relative distances for extrusion
G1 E-.8 F1800
M106 S0
;LAYER_CHANGE
;Z:0.2
;HEIGHT:0.2
;BEFORE_LAYER_CHANGE
;0.2
G92 E0

;AFTER_LAYER_CHANGE
;0.2
;_SET_FAN_SPEED_CHANGING_LAYER
SET_VELOCITY_LIMIT ACCEL=1000 ACCEL_TO_DECEL=1000
SET_VELOCITY_LIMIT SQUARE_CORNER_VELOCITY=20
; printing object 0 id:0 copy 0
EXCLUDE_OBJECT_START NAME=0_id_0_copy_0
G1 Z.4 F30000
G1 X45.459 Y51.929
G1 Z.2
G1 E.8 F1800
;TYPE:Brim
;WIDTH:0.5
G1 F3600
G1 X46.545 Y51.025 E.05103
G1 X47.46 Y50.397 E.04009
G1 X48.429 Y49.852 E.04014
G1 X49.266 Y49.466 E.03327
G1 X50.547 Y49.004 E.04918
G1 X51.905 Y48.668 E.0505
G1 X53.446 Y48.455 E.05616
G1 X54.597 Y48.404 E.04162
G1 X72.993 Y48.404 E.6642
G1 X74.152 Y48.457 E.04187
G1 X75.422 Y48.258 E.04643
G1 X76.532 Y48.13 E.04033
G1 X77.426 Y48.098 E.03231
G1 X167.344 Y48.097 E3.2466
G1 X168.46 Y48.147 E.04033
G1 X169.316 Y48.252 E.03111
G1 X171.582 Y48.606 E.08284
G1 X171.978 Y48.591 E.01429
G1 X190.271 Y48.589 E.66048
G1 X190.903 Y48.603 E.02284
G1 X191.74 Y48.66 E.03029
G1 X192.825 Y48.81 E.03954
G1 X194.257 Y49.142 E.05308
G1 X195.625 Y49.621 E.05235
G1 X196.632 Y50.086 E.04003
G1 X197.823 Y50.787 E.0499
G1 X198.776 Y51.479 E.04251
G1 X199.611 Y52.211 E.0401
G1 X200.379 Y53.013 E.0401
G1 X201.101 Y53.92 E.04184
G1 X201.718 Y54.844 E.04012
G1 X202.251 Y55.818 E.04011
G1 X202.696 Y56.836 E.04011
G1 X203.049 Y57.889 E.04011
G1 X203.308 Y58.97 E.04011
G1 X203.47 Y60.068 E.04008
G1 X203.536 Y61.329 E.04561
G1 X203.548 Y65.883 E.16442
G1 X203.501 Y66.998 E.04029
G1 X203.357 Y68.099 E.04011
G1 X203.117 Y69.182 E.04005
G1 X202.653 Y70.577 E.05306
G1 X202.159 Y71.683 E.04376
G1 X201.615 Y72.651 E.04009
G1 X200.987 Y73.568 E.04011
G1 X200.281 Y74.426 E.04011
G1 X199.503 Y75.217 E.04008
G1 X198.536 Y76.029 E.04558
G1 X197.546 Y76.719 E.04357
G1 X196.58 Y77.268 E.04012
G1 X195.701 Y77.675 E.03497
G1 X194.421 Y78.136 E.04913
G1 X192.999 Y78.484 E.05288
G1 X191.703 Y78.67 E.04727
G1 X190.924 Y78.723 E.02817
G1 X190.276 Y78.738 E.02342
G1 X187.718 Y78.738 E.09235
G1 X187.577 Y78.787 E.00538
G1 X187.489 Y78.967 E.00723
G1 X187.49 Y100.201 E.76668
G1 X187.441 Y101.317 E.04033
G1 X187.336 Y102.172 E.03112
G1 X186.969 Y104.49 E.0847
G1 X186.747 Y105.583 E.04029
G1 X186.43 Y106.648 E.04011
G1 X186.019 Y107.682 E.04019
G1 X185.764 Y108.217 E.02141
G1 X184.696 Y110.324 E.08526
G1 X184.09 Y111.382 E.04404
G1 X184.081 Y111.591 E.00755
G1 X184.369 Y112.22 E.02498
G1 X184.741 Y113.266 E.04011
G1 X185.019 Y114.342 E.04011
G1 X185.413 Y116.689 E.08592
G1 X185.542 Y117.797 E.0403
G1 X185.574 Y118.7 E.03259
G1 X185.576 Y150.67 E1.15431
G1 X185.526 Y151.785 E.04033
G1 X185.421 Y152.639 E.03104
G1 X185.149 Y154.364 E.06307
G1 X184.926 Y155.458 E.04029
G1 X184.61 Y156.522 E.04011
G1 X184.2 Y157.555 E.04012
G1 X183.15 Y159.661 E.08496
G1 X182.603 Y160.633 E.04026
G1 X181.975 Y161.549 E.04011
G1 X181.268 Y162.406 E.04011
G1 X179.599 Y164.106 E.08601
G1 X178.779 Y164.861 E.04026
G1 X177.898 Y165.538 E.04011
G1 X176.961 Y166.135 E.04011
G1 X174.85 Y167.235 E.08596
G1 X173.836 Y167.7 E.04026
G1 X172.789 Y168.072 E.04011
G1 X171.714 Y168.35 E.04011
G1 X169.367 Y168.744 E.08592
G1 X168.258 Y168.873 E.0403
G1 X167.356 Y168.906 E.03261
G1 X77.443 Y168.907 E3.2464
G1 X76.327 Y168.858 E.04033
G1 X75.474 Y168.753 E.03104
G1 X73.748 Y168.48 E.06307
G1 X72.655 Y168.258 E.04029
G1 X71.59 Y167.941 E.04011
G1 X70.555 Y167.53 E.04019
G1 X70.025 Y167.277 E.02122
G1 X68.452 Y166.481 E.06365
G1 X67.479 Y165.934 E.04029
G1 X66.563 Y165.306 E.04011
G1 X65.706 Y164.599 E.04011
G1 X64.006 Y162.93 E.08601
G1 X63.251 Y162.11 E.04026
G1 X62.574 Y161.229 E.04011
G1 X61.977 Y160.292 E.04011
G1 X60.877 Y158.181 E.08596
G1 X60.412 Y157.167 E.04026
G1 X60.04 Y156.12 E.04011
G1 X59.762 Y155.045 E.04011
G1 X59.368 Y152.698 E.08592
G1 X59.239 Y151.589 E.0403
G1 X59.207 Y150.687 E.03259
G1 X59.206 Y118.717 E1.15431
G1 X59.255 Y117.601 E.04033
G1 X59.36 Y116.748 E.03104
G1 X59.632 Y115.022 E.06307
G1 X59.855 Y113.929 E.04029
G1 X60.172 Y112.864 E.04011
G1 X60.582 Y111.829 E.04019
G1 X60.702 Y111.578 E.01005
G1 X60.719 Y111.43 E.00538
G1 X60.423 Y110.94 E.02068
G1 X60.128 Y110.398 E.02227
G1 X59.052 Y108.295 E.08528
G1 X58.588 Y107.281 E.04029
G1 X58.217 Y106.234 E.04011
G1 X57.939 Y105.156 E.04019
G1 X57.827 Y104.554 E.02211
G1 X57.452 Y102.221 E.08529
G1 X57.324 Y101.112 E.04033
G1 X57.292 Y100.219 E.03227
G1 X57.291 Y78.78 E.77407
G1 X57.243 Y78.639 E.00538
G1 X57.064 Y78.551 E.00719
G1 X54.064 Y78.537 E.10834
G1 X53.227 Y78.48 E.03027
G1 X52.144 Y78.33 E.03949
G1 X50.711 Y77.998 E.05309
G1 X49.414 Y77.548 E.04958
G1 X48.335 Y77.053 E.04286
G1 X47.121 Y76.337 E.0509
G1 X46.222 Y75.685 E.04008
G1 X45.385 Y74.956 E.04011
G1 X44.615 Y74.155 E.0401
G1 X43.906 Y73.273 E.04085
G1 X43.242 Y72.282 E.04307
G1 X42.71 Y71.307 E.04009
G1 X42.266 Y70.289 E.04011
G1 X41.914 Y69.235 E.04011
G1 X41.657 Y68.155 E.04011
G1 X41.496 Y67.056 E.04008
G1 X41.431 Y65.806 E.04519
G1 X41.42 Y61.254 E.16436
G1 X41.467 Y60.139 E.04029
G1 X41.612 Y59.038 E.04011
G1 X41.852 Y57.956 E.04003
G1 X42.35 Y56.476 E.05635
G1 X42.805 Y55.465 E.04007
G1 X43.349 Y54.496 E.04011
G1 X43.976 Y53.579 E.04011
G1 X44.681 Y52.721 E.04011
G1 X45.431 Y51.958 E.03861
G1 X45.757 Y52.279 F30000
G1 F3600
G1 X45.774 Y52.262 E.00087
G1 X46.826 Y51.386 E.04942
G1 X47.708 Y50.782 E.03858
G1 X48.632 Y50.262 E.03832
G1 X49.434 Y49.892 E.03188
G1 X50.687 Y49.44 E.04808
G1 X51.984 Y49.119 E.04825
G1 X53.481 Y48.912 E.05455
G1 X54.604 Y48.861 E.0406
G1 X72.979 Y48.861 E.66346
G1 X74.117 Y48.913 E.04113
G1 X75.482 Y48.711 E.04982
G1 X76.561 Y48.586 E.03919
G1 X77.436 Y48.555 E.03164
G1 X167.337 Y48.555 E3.24597
G1 X168.428 Y48.603 E.0394
G1 X169.254 Y48.705 E.03006
G1 X171.613 Y49.062 E.08614
G1 X171.989 Y49.048 E.0136
G1 X190.264 Y49.046 E.65982
G1 X190.879 Y49.06 E.02222
G1 X191.698 Y49.116 E.02963
G1 X192.736 Y49.26 E.03782
G1 X194.137 Y49.584 E.05193
G1 X195.46 Y50.048 E.05062
G1 X196.426 Y50.495 E.03843
G1 X197.567 Y51.166 E.0478
G1 X198.495 Y51.841 E.04142
G1 X199.299 Y52.546 E.03861
G1 X200.038 Y53.319 E.03863
G1 X200.728 Y54.185 E.03997
G1 X201.323 Y55.076 E.03869
G1 X201.843 Y56.025 E.03908
G1 X202.266 Y56.995 E.03821
G1 X202.607 Y58.01 E.03865
G1 X202.857 Y59.051 E.03865
G1 X203.014 Y60.107 E.03856
G1 X203.079 Y61.345 E.04478
G1 X203.091 Y65.871 E.16341
G1 X203.046 Y66.953 E.03908
G1 X202.905 Y68.026 E.03908
G1 X202.673 Y69.067 E.0385
G1 X202.228 Y70.405 E.0509
G1 X201.753 Y71.472 E.0422
G1 X201.223 Y72.415 E.03905
G1 X200.625 Y73.288 E.03821
G1 X199.945 Y74.115 E.03865
G1 X199.187 Y74.885 E.03902
G1 X198.253 Y75.67 E.04404
G1 X197.297 Y76.335 E.04206
G1 X196.376 Y76.858 E.03824
G1 X195.522 Y77.253 E.03399
G1 X194.282 Y77.7 E.04757
G1 X192.918 Y78.033 E.05069
G1 X191.66 Y78.215 E.0459
G1 X190.898 Y78.266 E.02758
G1 X187.73 Y78.281 E.11439
G1 X187.558 Y78.31 E.00628
G1 X187.441 Y78.35 E.00446
G1 X187.269 Y78.453 E.00726
G1 X187.16 Y78.598 E.00654
G1 X187.085 Y78.753 E.0062
G1 X187.032 Y78.982 E.00851
G1 X187.033 Y100.188 E.76565
G1 X186.984 Y101.284 E.03962
G1 X186.882 Y102.111 E.03008
G1 X186.519 Y104.411 E.08408
G1 X186.304 Y105.466 E.03887
G1 X185.999 Y106.492 E.03865
G1 X185.602 Y107.495 E.03895
G1 X185.353 Y108.017 E.02088
G1 X184.295 Y110.103 E.08446
G1 X183.702 Y111.141 E.04315
G1 X183.633 Y111.378 E.00891
G1 X183.625 Y111.554 E.00637
G1 X183.672 Y111.796 E.00891
G1 X183.947 Y112.398 E.02388
G1 X184.301 Y113.395 E.03821
G1 X184.57 Y114.432 E.03867
G1 X184.96 Y116.75 E.08487
G1 X185.086 Y117.838 E.03954
G1 X185.117 Y118.71 E.03153
G1 X185.119 Y150.656 E1.15345
G1 X185.071 Y151.742 E.03924
G1 X184.968 Y152.578 E.03039
G1 X184.699 Y154.28 E.06223
G1 X184.484 Y155.341 E.03908
G1 X184.179 Y156.367 E.03865
G1 X183.784 Y157.363 E.0387
G1 X182.748 Y159.444 E.08393
G1 X182.217 Y160.386 E.03903
G1 X181.613 Y161.269 E.03865
G1 X180.932 Y162.095 E.03867
G1 X179.278 Y163.78 E.08521
G1 X178.488 Y164.507 E.03877
G1 X177.64 Y165.16 E.03865
G1 X176.727 Y165.742 E.0391
G1 X174.646 Y166.826 E.08474
G1 X173.658 Y167.278 E.03921
G1 X172.661 Y167.633 E.03821
G1 X171.624 Y167.901 E.03867
G1 X169.299 Y168.292 E.08513
G1 X168.229 Y168.417 E.0389
G1 X167.35 Y168.449 E.03176
G1 X77.45 Y168.45 E3.24594
G1 X76.359 Y168.401 E.0394
G1 X75.535 Y168.299 E.03
G1 X73.832 Y168.031 E.06223
G1 X72.771 Y167.815 E.03909
G1 X71.734 Y167.506 E.03908
G1 X70.742 Y167.113 E.03852
G1 X70.228 Y166.868 E.02058
G1 X68.67 Y166.08 E.06304
G1 X67.727 Y165.549 E.03909
G1 X66.844 Y164.944 E.03865
G1 X66.017 Y164.263 E.03867
G1 X64.333 Y162.609 E.08522
G1 X63.605 Y161.819 E.03877
G1 X62.953 Y160.971 E.03865
G1 X62.371 Y160.058 E.0391
G1 X61.289 Y157.983 E.08449
G1 X60.834 Y156.989 E.03946
G1 X60.476 Y155.98 E.03865
G1 X60.211 Y154.955 E.03823
G1 X59.821 Y152.637 E.08488
G1 X59.696 Y151.56 E.03915
G1 X59.664 Y150.676 E.03192
G1 X59.663 Y118.724 E1.15367
G1 X59.711 Y117.645 E.03902
G1 X59.812 Y116.814 E.03023
G1 X60.082 Y115.107 E.0624
G1 X60.298 Y114.046 E.03908
G1 X60.602 Y113.02 E.03865
G1 X61 Y112.017 E.03896
G1 X61.109 Y111.785 E.00924
G1 X61.171 Y111.496 E.0107
G1 X61.152 Y111.291 E.00743
G1 X61.106 Y111.187 E.00411
G1 X60.818 Y110.71 E.02012
G1 X60.534 Y110.186 E.02153
G1 X59.462 Y108.093 E.08489
G1 X59.014 Y107.114 E.03887
G1 X58.656 Y106.106 E.03864
G1 X58.387 Y105.061 E.03894
G1 X58.278 Y104.477 E.02145
G1 X57.906 Y102.162 E.08468
G1 X57.781 Y101.083 E.03921
G1 X57.749 Y100.208 E.03161
G1 X57.749 Y78.791 E.77327
G1 X57.72 Y78.62 E.00627
G1 X57.68 Y78.503 E.00446
G1 X57.576 Y78.33 E.00726
G1 X57.432 Y78.223 E.00649
G1 X57.279 Y78.148 E.00617
G1 X57.051 Y78.094 E.00847
G1 X54.076 Y78.08 E.10741
G1 X53.269 Y78.024 E.02919
G1 X52.221 Y77.878 E.03822
G1 X50.831 Y77.556 E.05151
G1 X49.591 Y77.125 E.04741
G1 X48.553 Y76.65 E.0412
G1 X47.366 Y75.951 E.04975
G1 X46.503 Y75.323 E.03855
G1 X45.696 Y74.62 E.03865
G1 X44.954 Y73.848 E.03864
G1 X44.271 Y72.997 E.0394
G1 X43.636 Y72.05 E.04116
G1 X43.124 Y71.112 E.03862
G1 X42.696 Y70.13 E.03865
G1 X42.356 Y69.115 E.03865
G1 X42.108 Y68.074 E.03865
G1 X41.952 Y67.018 E.03857
G1 X41.888 Y65.791 E.04436
G1 X41.878 Y61.266 E.16335
G1 X41.924 Y60.173 E.03952
G1 X42.061 Y59.123 E.03821
G1 X42.292 Y58.086 E.03839
G1 X42.779 Y56.637 E.05517
G1 X43.217 Y55.665 E.0385
G1 X43.741 Y54.732 E.03865
G1 X44.345 Y53.849 E.03865
G1 X45.017 Y53.031 E.03821
G1 X45.729 Y52.307 E.03666
G1 X46.056 Y52.628 F30000
G1 F3600
G1 X46.089 Y52.594 E.00173
G1 X47.107 Y51.748 E.0478
G1 X47.955 Y51.168 E.03707
G1 X48.836 Y50.672 E.03651
G1 X49.602 Y50.317 E.03049
G1 X50.813 Y49.88 E.04646
G1 X52.064 Y49.57 E.04653
G1 X53.516 Y49.368 E.05295
G1 X54.611 Y49.318 E.03958
G1 X72.966 Y49.318 E.66271
G1 X74.084 Y49.369 E.04041
G1 X75.541 Y49.164 E.05312
G1 X76.59 Y49.043 E.03812
G1 X77.447 Y49.012 E.03097
G1 X167.33 Y49.012 E3.24533
G1 X168.395 Y49.06 E.03847
G1 X169.193 Y49.158 E.02904
G1 X171.643 Y49.519 E.0894
G1 X172.001 Y49.505 E.01293
G1 X190.257 Y49.503 E.65917
G1 X190.855 Y49.516 E.0216
G1 X191.656 Y49.571 E.02896
G1 X192.646 Y49.709 E.03611
G1 X194.016 Y50.026 E.05077
G1 X195.294 Y50.475 E.04888
G1 X196.219 Y50.904 E.03683
G1 X197.31 Y51.546 E.04571
G1 X198.214 Y52.202 E.04033
G1 X198.986 Y52.88 E.03711
G1 X199.697 Y53.625 E.03716
G1 X200.355 Y54.45 E.03811
G1 X200.929 Y55.308 E.03725
G1 X201.434 Y56.233 E.03806
G1 X201.841 Y57.165 E.03675
G1 X202.169 Y58.142 E.03719
G1 X202.406 Y59.132 E.03675
G1 X202.557 Y60.146 E.03703
G1 X202.622 Y61.361 E.04394
G1 X202.633 Y65.859 E.1624
G1 X202.589 Y66.92 E.03832
G1 X202.453 Y67.953 E.03762
G1 X202.23 Y68.951 E.03696
G1 X201.804 Y70.233 E.04875
G1 X201.346 Y71.261 E.04063
G1 X200.831 Y72.178 E.038
G1 X200.255 Y73.018 E.03675
G1 X199.609 Y73.804 E.03675
G1 X198.871 Y74.553 E.03796
G1 X197.97 Y75.31 E.0425
G1 X197.047 Y75.951 E.04056
G1 X196.171 Y76.448 E.03637
G1 X195.342 Y76.832 E.033
G1 X194.143 Y77.263 E.04601
G1 X192.837 Y77.582 E.04852
G1 X191.617 Y77.759 E.04453
G1 X190.877 Y77.809 E.02677
G1 X187.737 Y77.824 E.11339
G1 X187.493 Y77.858 E.00889
G1 X187.196 Y77.964 E.01139
G1 X187.046 Y78.054 E.00629
G1 X186.894 Y78.191 E.0074
G1 X186.8 Y78.317 E.00568
G1 X186.679 Y78.543 E.00927
G1 X186.588 Y78.875 E.01241
G1 X186.575 Y78.99 E.00419
G1 X186.576 Y100.175 E.76489
M73 P0 R104
G1 X186.528 Y101.251 E.03891
M73 P0 R104
G1 X186.429 Y102.05 E.02905
G1 X186.068 Y104.333 E.08346
G1 X185.861 Y105.349 E.03745
G1 X185.568 Y106.337 E.03719
G1 X185.184 Y107.308 E.03771
G1 X184.942 Y107.817 E.02034
G1 X183.894 Y109.883 E.08366
G1 X183.311 Y110.902 E.04238
G1 X183.197 Y111.241 E.01292
G1 X183.169 Y111.523 E.01025
G1 X183.223 Y111.878 E.01296
G1 X183.525 Y112.575 E.02743
G1 X183.862 Y113.523 E.03632
G1 X184.121 Y114.521 E.03723
G1 X184.507 Y116.811 E.08382
G1 X184.63 Y117.878 E.03879
G1 X184.66 Y118.721 E.03046
G1 X184.661 Y150.643 E1.15259
G1 X184.615 Y151.699 E.03814
G1 X184.515 Y152.516 E.02974
G1 X184.25 Y154.196 E.06139
G1 X184.041 Y155.224 E.03789
G1 X183.748 Y156.212 E.03719
G1 X183.369 Y157.171 E.03727
G1 X182.345 Y159.226 E.08289
G1 X181.832 Y160.139 E.03779
G1 X181.25 Y160.989 E.03719
G1 X180.595 Y161.785 E.03722
G1 X178.958 Y163.454 E.08442
G1 X178.198 Y164.153 E.03728
G1 X177.382 Y164.782 E.03718
G1 X176.493 Y165.348 E.03808
G1 X174.441 Y166.417 E.08351
G1 X173.48 Y166.856 E.03815
G1 X172.521 Y167.197 E.03676
G1 X171.535 Y167.452 E.03679
G1 X169.231 Y167.84 E.08433
G1 X168.2 Y167.96 E.0375
G1 X167.344 Y167.991 E.03091
G1 X77.457 Y167.992 E3.24547
G1 X76.392 Y167.945 E.03847
G1 X75.596 Y167.846 E.02896
G1 X73.916 Y167.581 E.06139
G1 X72.888 Y167.372 E.03788
G1 X71.878 Y167.072 E.03806
G1 X70.929 Y166.695 E.03685
G1 X70.431 Y166.458 E.01993
G1 X68.888 Y165.678 E.06242
G1 X67.974 Y165.163 E.03789
G1 X67.124 Y164.582 E.03719
G1 X66.327 Y163.926 E.03722
G1 X64.659 Y162.289 E.08442
G1 X63.959 Y161.529 E.03728
G1 X63.331 Y160.713 E.03718
G1 X62.764 Y159.824 E.03808
G1 X61.702 Y157.785 E.08301
G1 X61.256 Y156.811 E.03865
G1 X60.916 Y155.852 E.03675
G1 X60.66 Y154.866 E.0368
G1 X60.275 Y152.576 E.08383
G1 X60.153 Y151.531 E.038
G1 X60.121 Y150.666 E.03125
G1 X60.12 Y118.731 E1.15303
G1 X60.166 Y117.688 E.03771
G1 X60.265 Y116.88 E.0294
G1 X60.531 Y115.191 E.06173
G1 X60.74 Y114.163 E.03788
G1 X61.037 Y113.163 E.03766
G1 X61.559 Y111.869 E.05037
G1 X61.616 Y111.601 E.00989
G1 X61.625 Y111.443 E.00572
G1 X61.609 Y111.264 E.00649
G1 X61.522 Y111 E.01002
G1 X60.937 Y109.971 E.04274
G1 X59.872 Y107.891 E.08437
G1 X59.441 Y106.948 E.03745
G1 X59.096 Y105.978 E.03719
G1 X58.834 Y104.967 E.0377
